X: 1
T: String Quartet in E\b Major opus 50 no 3 mvt 4
C: Franz Joseph Haydn
%%abc-version 2.0
%%abcx-abcm2ps-target-version 5.9.1 (29 Sep 2008)
%%abc-creator hum2abc beta
%%abcx-conversion-date 2021/02/14 14:38:31
%%abc-copyright Copyright (c) 1994, 2000 Center for Computer Assisted Research in the Humanities
%%abc-edited-by Frances Bennion
%%abcx-initial-encoding-date 1997/04/15
%%gracespace 0 6 6
%%humdrum-veritas 3206751260
%%humdrum-veritas-data 4225046443
%%linebreak <none>
%%barnumbers 0
L: 1/8
M: 2/4
N: Derived from op50n3-04.krn
Q: "Finale"
%%staves [1 2 3 4]
V: 1
V: 2
V: 3 clef=alto
V: 4 clef=bass
K: Eb
[V:1]z3 B, [I:setbarnb1]|
[V:2]z3 z |
[V:3]z3 z |
[V:4]z3 z |
[V:1]E3 F |
[V:2]zB, B,A, |
[V:3]zG, G,F, |
[V:4]E,2 z2 |
[V:1]GE E=E |
[V:2]G,2 z2 |
[V:3]E,2 z2 |
[V:4]z4 |
[V:1]F3 G |
[V:2]zF FE |
[V:3]zA, A,G, |
[V:4]B,,2 z2 |
[V:1]AF F^F |
[V:2]D2 z2 |
[V:3]F,2 z2 |
[V:4]z4 |
[V:1]G3 B |
[V:2]zB, B,G, |
[V:3]zG, G,E, |
[V:4]E,,2 z2 |
[V:1]D3 A |
[V:2]zA, A,F |
[V:3]zF, F,D, |
[V:4]B,,2 z2 |
[V:1]G3 B |
[V:2]zB, B,G, |
[V:3]zG, G,E, |
[V:4]E,2 z2 |
[V:1]D3 A |
[V:2]zA, A,F |
[V:3]zF, F,D, |
[V:4]B,,2 z2 |
[V:1]Gz Az |
[V:2]zG zA |
[V:3]zE, zE |
[V:4]E,z C,z |
[V:1]Bz c3/d//e// |
[V:2]zB zc |
[V:3]zE zE |
[V:4]G,,z A,,z |
[V:1]G3 A/G/ |
[V:2]E3 F/E/ |
[V:3]B,4- |
[V:4]B,,4- |
[V:1]F2 zB, |
[V:2]D2 z2 |
[V:3]B,2 z2 |
[V:4]B,,2 z2 |
[V:1]E3 F |
[V:2]zC B,z |
[V:3]zA, G,z |
[V:4]E,2 z2 |
[V:1]GE E=E |
[V:2]z_C B,z |
[V:3]zA, G,z |
[V:4]E,2 z2 |
[V:1]F3 G |
[V:2]z^C Dz |
[V:3]z=A, B,z |
[V:4]B,,2 z2 |
[V:1]AF F^F |
[V:2]zE Dz |
[V:3]z_C B,z |
[V:4]B,,2 z2 |
[V:1]G3 B |
[V:2]z=A, B,G |
[V:3]z3 G, |
[V:4]E,3 E, |
[V:1]D3 A |
[V:2]z_C B,F |
[V:3]A,2 zD, |
[V:4]F,3 B,, |
[V:1]G3 B |
[V:2]z=A, B,G |
[V:3]E,2 zG, |
[V:4]E,3 E, |
[V:1]D3 A |
[V:2]z_C B,F |
[V:3]A,2 zD, |
[V:4]F,3 B,, |
[V:1]Gz Az |
[V:2]zG zA |
[V:3]E,E zE |
[V:4]E,z C,z |
[V:1]Bz c3/d//e// |
[V:2]zB zc |
[V:3]zE zE |
[V:4]G,,z A,,z |
[V:1]E2 F3/E/ |
[V:2]G,2 A,2 |
[V:3]B,2 D,2 |
[V:4]B,,4 |
[V:1]E2 zB |
[V:2]G,2 z2 |
[V:3]E,2 z2 |
[V:4]E,2 E,,2 |
[V:1]e3 f |
[V:2]zB BA |
[V:3]zG GF |
[V:4]z4 |
[V:1]ge/f/ g/a/b/c'/ |
[V:2]G2 z2 |
[V:3]E2 z2 |
[V:4]z4 |
[V:1]b3 d' |
[V:2]z4 |
[V:3]zB BA |
[V:4]zG, G,F, |
[V:1]e'g'/f'/ e'/d'/c'/b/ |
[V:2]z4 |
[V:3]G2 z2 |
[V:4]E,2 z2 |
[V:1]a3 g |
[V:2]zA AB |
[V:3]zF FG |
[V:4]z4 |
[V:1]fc'/b/ a/g/f/e/ |
[V:2]c4 |
[V:3]A3 =A |
[V:4]z4 |
[V:1]df/e/ d/c/B/A/ |
[V:2]B3 F |
[V:3]B3 D |
[V:4]z3 B,, |
[V:1]G3 z |
[V:2]GB/A/ G/F/E/D/ |
[V:3]EG,2 A, |
[V:4]E,3 F, |
[V:1]zg/f/ e/d/c/B/ |
[V:2]E2 z2 |
[V:3]B,G2 G, |
[V:4]G,E, E,=E, |
[V:1]=A2 z2 |
[V:2]zc/B/ =A/G/F/=E/ |
[V:3]=A,=A2 B |
[V:4]F,3 G, |
[V:1]zc'/b/ =a/g/f/e/ |
[V:2]F2 z2 |
[V:3]c=A,2 C |
[V:4]=A,F, F,A, |
[V:1]d2 z2 |
[V:2]zf/e/ d/c/B/=A/ |
[V:3]B,D2 E |
[V:4]B,3 C |
[V:1]zb2 a |
[V:2]Bd f2- |
[V:3]FF/E/ D/F/E/D/ |
[V:4]DB, B,=B, |
[V:1]gG gg |
[V:2]f2 ed |
[V:3]CG c=B |
[V:4]C3 D |
[V:1]g4- |
[V:2]c/d/e/d/ c/d/B/c/ |
[V:3]cE/F/ G=E |
[V:4]EC E=E |
[V:1]g2 f=e |
[V:2]=A3 B |
[V:3]F3 G |
[V:4]F2 z2 |
[V:1]f2 e2 |
[V:2]c4- |
[V:3]=AF F^F |
[V:4]z4 |
[V:1]d4 |
[V:2]c2 B2- |
[V:3]GD DE |
[V:4]z4 |
[V:1]c4 |
[V:2]B2 A2- |
[V:3]FC CD |
[V:4]z4 |
[V:1]B2 e2- |
[V:2]A2 G2 |
[V:3]E2 G=A/B/ |
[V:4]zE, C,B,, |
[V:1]e2 d2 |
[V:2]F4 |
[V:3]c2 B2- |
[V:4]=A,,F, B,,B, |
[V:1]c2 =AG/A/ |
[V:2]G2 ED/E/ |
[V:3]BE CB,/C/ |
[V:4]E,C F,,F, |
[V:1]B2 zf |
[V:2]D2 z2 |
[V:3]B,2 z2 |
[V:4]B,,B, z2 |
[V:1]b3 c' |
[V:2]zg fz |
[V:3]ze dz |
[V:4]z4 |
[V:1]d'b b=b |
[V:2]z_g fz |
[V:3]ze dz |
[V:4]z4 |
[V:1]c'3 d' |
[V:2]zb =az |
[V:3]z=e fz |
[V:4]z4 |
[V:1]e'c' c'^c' |
[V:2]zb =a=A |
[V:3]z=e fz |
[V:4]z4 |
[V:1]d'=a b^f |
[V:2]B2 zD |
[V:3]z^F Gz |
[V:4]z4 |
[V:1]gd e=B |
[V:2]E2 zF |
[V:3]z3 A |
[V:4]z=B, CD |
[V:1]cd e=B |
[V:2]ED CF |
[V:3]GF EA |
[V:4]E=B, CD |
[V:1]cd e=B |
[V:2]ED CA |
[V:3]GF EF |
[V:4]E=B, CD |
[V:1]cd e=e |
[V:2]G2 z2 |
[V:3]E2 z2 |
[V:4]E2 z2 |
[V:1]f^f =ag |
[V:2]z4 |
[V:3]z4 |
[V:4]z4 |
[V:1]fe dc |
[V:2]z4 |
[V:3]z4 |
[V:4]z4 |
[V:1]=B_B =A_A |
[V:2]zB =A_A |
[V:3]zB, =A,_A, |
[V:4]zB,, =A,,_A,, |
[V:1]G_G F=E |
[V:2]G_G F=E |
[V:3]G,_G, F,=E, |
[V:4]G,,_G,, F,,=E,, |
[V:1]FB df |
[V:2]Fd dd |
[V:3]F,B BB |
[V:4]F,,F, F,F, |
[V:1]bd' f'b |
[V:2]dd dd |
[V:3]BB BB |
[V:4]F,F, F,F, |
[V:1]c'4- |
[V:2]=A3 B |
[V:3]E3 D |
[V:4]F,F, F,F, |
[V:1]c'4 |
[V:2]c=A AA |
[V:3]CE EE |
[V:4]F,F, F,F, |
[V:1]b4- |
[V:2]B3 c |
[V:3]D3 E |
[V:4]B,,B, B,,z |
[V:1]b4- |
[V:2]dB Bc |
[V:3]FD DE |
[V:4]z4 |
[V:1]b4- |
[V:2]d3 e |
[V:3]F3 G |
[V:4]B,,B, B,,z |
[V:1]b4- |
[V:2]fd de |
[V:3]AF FE |
[V:4]z3 B,, |
[V:1]b4- |
[V:2]f4- |
[V:3]D4- |
[V:4]A,3 F, |
[V:1]b4- |
[V:2]f4- |
[V:3]D4- |
[V:4]D,B,, A,,F,, |
[V:1]ba fd |
[V:2]f2 z2 |
[V:3]D2 z2 |
[V:4]D,,2 z2 |
[V:1]BA FD |
[V:2]z4 |
[V:3]z4 |
[V:4]z4 |
[V:1]_C4 |
[V:2]z4 |
[V:3]z4 |
[V:4]z4 |
[V:1]B,2 zB, |
[V:2]z4 |
[V:3]z4 |
[V:4]z4 |
[V:1]E3 F |
[V:2]zB, B,A, |
[V:3]zG, G,F, |
[V:4]_D,4 |
[V:1]GE EG |
[V:2]G,2 z2 |
[V:3]E,2 z2 |
[V:4]z4 |
[V:1]A3 B |
[V:2]zE E_D |
[V:3]zC CB, |
[V:4]C,4 |
[V:1]cA A=A |
[V:2]C2 z2 |
[V:3]A,2 z2 |
[V:4]z4 |
[V:1]B3 c |
[V:2]zA Gz |
[V:3]zD Ez |
[V:4]z4 |
[V:1]_dB B=B |
[V:2]zA Gz |
[V:3]zD Ez |
[V:4]z4 |
[V:1]c3 _d |
[V:2]z_G GF |
[V:3]zE E_D |
[V:4]A,,4- |
[V:1]ec ce |
[V:2]E_G GE |
[V:3]CE EC |
[V:4]A,,4- |
[V:1]f_d df |
[V:2]_DA AF |
[V:3]_DF FD |
[V:4]A,,4- |
[V:1]_ge f_d |
[V:2]E_G F_D |
[V:3]CE _DF |
[V:4]A,,4- |
[V:1]A4- |
[V:2]A4- |
[V:3]A,4- |
[V:4]A,,4- |
[V:1]A2 _G2 |
[V:2]A2 _G2 |
[V:3]A,2 _G,2 |
[V:4]A,,2 _G,,2 |
[V:1]F2 f2- |
[V:2]F4- |
[V:3]F,=A,2 B, |
[V:4]F,,F,2 G, |
[V:1]f2 e2 |
[V:2]F4 |
[V:3]C=A, A,C |
[V:4]=A,F, F,A, |
[V:1]_d3 f |
[V:2]z=E F_d |
[V:3]B,4 |
[V:4]B,2 z2 |
[V:1]=A3 e |
[V:2]z_G Fc |
[V:3]C3 =A, |
[V:4]F,2 z2 |
[V:1]_d3 f |
[V:2]z=E F_d |
[V:3]B,4 |
[V:4]B,,2 z2 |
[V:1]=A3 e |
[V:2]z_G Fc |
[V:3]C3 =A, |
[V:4]F,,2 z2 |
[V:1]de d_c' |
[V:2]A3 D |
[V:3]F3 A |
[V:4]B,4- |
[V:1]zd eb |
[V:2]_G3 E |
[V:3]E3 _G |
[V:4]B,4- |
[V:1]ze d_c' |
[V:2]A3 D |
[V:3]F3 A |
[V:4]B,4- |
[V:1]zd eb |
[V:2]_G3 E |
[V:3]E3 _G |
[V:4]B,4 |
[V:1]z_d cb |
[V:2]_G3 C |
[V:3]E3 _G |
[V:4]A,4- |
[V:1]zc _da |
[V:2]F3 _D |
[V:3]_D3 F |
[V:4]A,4 |
[V:1]zc Ba |
[V:2]F3 _D |
[V:3]_D3 F |
[V:4]_G,4- |
[V:1]zB c_g |
[V:2]E3 C |
[V:3]C3 E |
[V:4]G,4 |
[V:1]zB =A_g |
[V:2]E3 =A, |
[V:3]C3 E |
[V:4]F,4 |
[V:1]z=A Bf |
[V:2]B,4 |
[V:3]_D2 B,2 |
[V:4]_D,4 |
[V:1]=e3 c |
[V:2]B4 |
[V:3]G4 |
[V:4]C,_D, C,G, |
[V:1]f3 c |
[V:2]A4 |
[V:3]F4 |
[V:4]z=B,, C,F, |
[V:1]b3 c |
[V:2]g4 |
[V:3]=E4 |
[V:4]z_D, C,=E, |
[V:1]a3 c |
[V:2]f4 |
[V:3]F4- |
[V:4]z=B,, C,F, |
[V:1]a3 f |
[V:2]=B4 |
[V:3]F4 |
[V:4]z=B,, D,A, |
[V:1]a3 =B |
[V:2]F3 =B |
[V:3]=B,4 |
[V:4]z=B,, D,=B, |
[V:1]c2 z2 |
[V:2]c=B c_d |
[V:3]C=B, C_D |
[V:4]C=B, C_D |
[V:1]z3 c |
[V:2]cB AG |
[V:3]CB, A,G, |
[V:4]CB, A,G, |
[V:1]f3 g |
[V:2]Fc cB |
[V:3]F,A AG |
[V:4]F,2 z2 |
[V:1]af f^f |
[V:2]A2 z2 |
[V:3]F2 z2 |
[V:4]z4 |
[V:1]g3 a |
[V:2]z_d dc |
[V:3]zB BA |
[V:4]=E4- |
[V:1]bg gb |
[V:2]B2 z2 |
[V:3]G2 z2 |
[V:4]E4 |
[V:1]=a4- |
[V:2]e3 f |
[V:3]c3 _d |
[V:4]F4- |
[V:1]a3 b |
[V:2]_ge ee |
[V:3]ec cc |
[V:4]F3 _G |
[V:1]=a4- |
[V:2]e3 f |
[V:3]c3 _d |
[V:4]F4- |
[V:1]a3 b |
[V:2]_ge ee |
[V:3]ec cc |
[V:4]F3 _G |
[V:1]=a4- |
[V:2]e4- |
[V:3]c4- |
[V:4]F4- |
[V:1]a2 =a2 |
[V:2]e2 e2 |
[V:3]c2 c2 |
[V:4]F2 F2 |
[V:1]a3 b |
[V:2]d4- |
[V:3]_c4- |
[V:4]F4- |
[V:1]_c'a aa |
[V:2]d4- |
[V:3]c4- |
[V:4]F4 |
[V:1]a3 b |
[V:2]d4- |
[V:3]c4- |
[V:4]_F4- |
[V:1]_c'a aa |
[V:2]d4 |
[V:3]c4 |
[V:4]F4 |
[V:1]g3 a |
[V:2]_d3 c |
[V:3]B3 A |
[V:4]E4- |
[V:1]bg gb |
[V:2]B_d dB |
[V:3]GB BG |
[V:4]E4- |
[V:1]a3 b |
[V:2]e3 _d |
[V:3]c3 B |
[V:4]E4- |
[V:1]c'a ac' |
[V:2]ce ec |
[V:3]Ac cA |
[V:4]E4- |
[V:1]b3 c' |
[V:2]_d3 c |
[V:3]G3 A |
[V:4]E4- |
[V:1]_d'b bd' |
[V:2]B_d dB |
[V:3]BG GB |
[V:4]E4 |
[V:1]c'3 b |
[V:2]c2 z2 |
[V:3]EE2 =E |
[V:4]A,4- |
[V:1]ag fe |
[V:2]z4 |
[V:3]F4 |
[V:4]A,A,2 =A, |
[V:1]b4- |
[V:2]B3 c |
[V:3]D3 E |
[V:4]B,B,, B,,z |
[V:1]b4- |
[V:2]dB Bc |
[V:3]FD DE |
[V:4]z4 |
[V:1]b4- |
[V:2]d3 e |
[V:3]F3 G |
[V:4]B,,B, B,,z |
[V:1]b4- |
[V:2]fd de |
[V:3]AF FE |
[V:4]z3 B,, |
[V:1]b4- |
[V:2]f4- |
[V:3]D4- |
[V:4]A,3 F, |
[V:1]b4- |
[V:2]f4- |
[V:3]D4- |
[V:4]D,B,, A,,F,, |
[V:1]ba fd |
[V:2]f2 z2 |
[V:3]D2 z2 |
[V:4]D,,2 z2 |
[V:1]BA FD |
[V:2]z4 |
[V:3]z4 |
[V:4]z4 |
[V:1]_C4 |
[V:2]z4 |
[V:3]z4 |
[V:4]z4 |
[V:1]B,2 zB, |
[V:2]z4 |
[V:3]z4 |
[V:4]z4 |
[V:1]E3 F |
[V:2]zC B,z |
[V:3]zA, G,z |
[V:4]E,2 z2 |
[V:1]GE E=E |
[V:2]z_C B,z |
[V:3]zA, G,z |
[V:4]E,2 z2 |
[V:1]F3 G |
[V:2]z^C Dz |
[V:3]z=A, B,z |
[V:4]B,,2 z2 |
[V:1]AF F^F |
[V:2]zE Dz |
[V:3]z_C B,z |
[V:4]B,,2 z2 |
[V:1]G3 B |
[V:2]z=A, B,G |
[V:3]z3 G, |
[V:4]E,3 E, |
[V:1]D3 A |
[V:2]z_C B,F |
[V:3]A,2 zD, |
[V:4]F,3 B,, |
[V:1]G3 B |
[V:2]z=A, B,G |
[V:3]E,2 zG, |
[V:4]E,3 E, |
[V:1]D3 A |
[V:2]z_C B,F |
[V:3]A,2 zD |
[V:4]F,3 B,, |
[V:1]Gz Az |
[V:2]zG zA |
[V:3]EE zE |
[V:4]E,z C,z |
[V:1]Bz c3/d//e// |
[V:2]zB zc |
[V:3]zE zE |
[V:4]G,,z A,,z |
[V:1]G3 A/G/ |
[V:2]E3 F/E/ |
[V:3]B,4- |
[V:4]B,,4- |
[V:1]F2 zB |
[V:2]D2 z2 |
[V:3]B,2 z2 |
[V:4]B,,2 z2 |
[V:1]ee zf |
[V:2]z2 B2 |
[V:3]z2 G2 |
[V:4]z2 E2 |
[V:1]ge z=e |
[V:2]z2 B2 |
[V:3]z2 G2 |
[V:4]z2 E2 |
[V:1]ff zg |
[V:2]z2 d2 |
[V:3]z2 F2 |
[V:4]z2 B,2 |
[V:1]af z^f |
[V:2]z2 d2 |
[V:3]z2 F2 |
[V:4]z2 B,2 |
[V:1]gg zb |
[V:2]z2 [B2G2] |
[V:3]z2 E2 |
[V:4]z2 E2 |
[V:1]dd za |
[V:2]z2 [B2F2] |
[V:3]z2 D2 |
[V:4]z2 B,2 |
[V:1]gg zb |
[V:2]z2 [B2G2] |
[V:3]z2 E2 |
[V:4]z2 E2 |
[V:1]dd za |
[V:2]z2 [B2F2] |
[V:3]z2 D2 |
[V:4]z2 B,2 |
[V:1]zg za |
[V:2]Bz Ez |
[V:3]Ez Ez |
[V:4]Ez Cz |
[V:1]zb zc' |
[V:2]Ez Ez |
[V:3]Ez Ez |
[V:4]G,z A,z |
[V:1]_d'd'/c'/ bb/a/ |
[V:2]E4- |
[V:3]B4- |
[V:4]G,4- |
[V:1]gg/f/ ee/_d/ |
[V:2]E4- |
[V:3]B4 |
[V:4]G,4 |
[V:1]cc'/b/ aa/g/ |
[V:2]E2 =E2 |
[V:3]c4 |
[V:4]A,4- |
[V:1]fa/g/ ff/e/ |
[V:2]F4- |
[V:3]C4 |
[V:4]A,2 =A,2 |
[V:1]df2 g |
[V:2]Fd2 e |
[V:3]B,2 DC |
[V:4]B,2 z2 |
[V:1]af f^f |
[V:2]fd dd |
[V:3]B,2 z2 |
[V:4]z4 |
[V:1]g3 a |
[V:2]e3 f |
[V:3]z2 GF |
[V:4]z=A, B,z |
[V:1]bg gg |
[V:2]ge ee |
[V:3]E2 z2 |
[V:4]z4 |
[V:1]a3 b |
[V:2]f3 g |
[V:3]z2 FE |
[V:4]z=A, B,z |
[V:1]c'a aa |
[V:2]af ff |
[V:3]D2 zB |
[V:4]z4 |
[V:1]g4 |
[V:2]f2 e2- |
[V:3]cG GA |
[V:4]z4 |
[V:1]f4 |
[V:2]e2 d2- |
[V:3]BF FG |
[V:4]z4 |
[V:1]e4 |
[V:2]d2 c2- |
[V:3]A2 z2 |
[V:4]zE, E,F, |
[V:1]d4 |
[V:2]c2 B2- |
[V:3]z4 |
[V:4]G,D, D,E, |
[V:1]c4 |
[V:2]B2 A2- |
[V:3]z4 |
[V:4]F,C, C,D, |
[V:1]B2 e2- |
[V:2]A2 G2 |
[V:3]z2 C2- |
[V:4]E,D, C,B,, |
[V:1]e2 d2 |
[V:2]F4 |
[V:3]C2 B,2 |
[V:4]A,,F,, B,,B,, |
[V:1]e4 |
[V:2]E3 F |
[V:3]=A,2 z2 |
[V:4]C,3 D, |
[V:1]=A4 |
[V:2]_GE EE |
[V:3]z4 |
[V:4]E,C, C,C, |
[V:1]f4 |
[V:2]D3 E |
[V:3]A3 G |
[V:4]B,,3 C, |
[V:1]A4 |
[V:2]FD DD |
[V:3]FF FF |
[V:4]D,B,, B,,B,, |
[V:1]Gz Fz |
[V:2]Ez Cz |
[V:3]B,z A,z |
[V:4]E,z A,,z |
[V:1]Ez Dz |
[V:2]B,z A,z |
[V:3]G,z F,z |
[V:4]B,,z B,,z |
[V:1]e'4 |
[V:2]E3 F |
[V:3]=A3 B |
[V:4]C3 D |
[V:1]=a4 |
[V:2]_GE EE |
[V:3]c2 z2 |
[V:4]EC CC |
[V:1]f'4 |
[V:2]D3 E |
[V:3]A3 G |
[V:4]B,3 C |
[V:1]a4 |
[V:2]FD DD |
[V:3]FF FF |
[V:4]DB, B,B, |
[V:1]gz fz |
[V:2]Ez cz |
[V:3]Gz Az |
[V:4]Ez A,z |
[V:1]ez dz |
[V:2]Bz Az |
[V:3]Gz Fz |
[V:4]B,z B,,z |
[V:1]e4 |
[V:2]G3 A |
[V:3]E3 F |
[V:4]E,,4- |
[V:1]_d4 |
[V:2]BG GB |
[V:3]GE EB, |
[V:4]E,,4- |
[V:1]c4- |
[V:2]A3 B |
[V:3]C3 B, |
[V:4]E,,4- |
[V:1]c4 |
[V:2]cA Ac |
[V:3]A,C CA, |
[V:4]E,,4- |
[V:1]A,4- |
[V:2]D3 E |
[V:3]F,3 E, |
[V:4]E,,4- |
[V:1]A,4 |
[V:2]FD DF |
[V:3]D,F, F,D, |
[V:4]E,,4- |
[V:1]G,2 z2 |
[V:2]E2 z2 |
[V:3]E,2 z2 |
[V:4]E,,2 z2 |
[V:1][E2G,2] [E2G,2] |
[V:2][E2G,2] [E2G,2] |
[V:3]B,2 B,2 |
[V:4]E,,2 E,,2 |
[V:1][E2G,2] z2 |
[V:2][E2G,2] z2 |
[V:3]B,2 z2 |
[V:4]E,,2 z2 |
[V:1]z4 |]
[V:2]z4 |]
[V:3]z4 |]
[V:4]z4 |]

